X: 1
T: the Blackbird
R: waltz
Z: 1997 by John Chambers <jc:trillian.mit.edu>
M: 3/4
L: 1/8
K: G
GA |\
"G"B3AG2 | "C"E4 GE | "G"D2 E2 G2 | "(D)"B3 AGA |\
"G"B3AG2 | "C"E4 GE | "D7"D2 E2 F2 | "G"G4 :|
GA |\
"G"B3ABc | "Bm"d4 ef | "C"g4 fg | "D7"f2 e2 dc |\
"G"B2 A2 B2 | "Bm"d3 e f2 | "C"g2 f2 e2 | "D7"d4 ||
Bd |\
"C"c4 dB | "D"A2 B2 d2 | "C"e2 ge dB | "D7"B2 A2 GA |\
"G"B3AG2 | "C"E4 GE | "D7"D2 E2 F2 | "G"G4 |]
